other/svg/icons/chip-logo.svg

<svg width="23" height="23" viewBox="0 0 23 23" fill="none" xmlns="http://www.w3.org/2000/svg">
<g clip-path="url(#clip0_4342_6)">
<rect x="1" y="1" width="21" height="21" rx="4" fill="#595769"/>
<path d="M16.3702 0V4.83265C15.0347 5.32135 14.0855 6.4961 13.884 7.90266H9.11396C8.91242 6.4961 7.96323 5.32239 6.62767 4.83265V0H16.3692H16.3702ZM17.1879 17.1002H17.1868C17.167 17.096 17.1482 17.0908 17.1283 17.0866C16.0277 16.8349 15.2101 15.8815 15.1078 14.7695C15.1078 14.7621 15.1067 14.7548 15.1057 14.7486C15.0994 14.6786 15.0963 14.6076 15.0963 14.5366V8.46341C15.0963 8.3924 15.0994 8.32139 15.1057 8.25143C15.1057 8.24412 15.1057 8.23681 15.1078 8.2295C15.2091 7.11636 16.0277 6.16299 17.1304 5.91238C17.143 5.90924 17.1555 5.90611 17.168 5.90402L17.19 5.8988C17.3591 5.86434 17.5345 5.84555 17.7142 5.84555H22.999V17.1534H17.7142C17.5335 17.1534 17.3581 17.1346 17.1879 17.1002ZM5.81004 5.8988L5.83093 5.90402C5.84346 5.90716 5.85703 5.91029 5.86956 5.91342C6.97122 6.16403 7.78989 7.11845 7.89222 8.23055C7.89222 8.23785 7.89326 8.24516 7.89431 8.25247C7.90057 8.32244 7.90371 8.39344 7.90371 8.46445V14.5376C7.90371 14.6086 7.90057 14.6797 7.89431 14.7496C7.89431 14.7569 7.89431 14.7642 7.89222 14.7715C7.79093 15.8836 6.9733 16.837 5.87165 17.0887C5.85286 17.0928 5.83406 17.0981 5.81422 17.1022H5.81213C5.64192 17.1377 5.46545 17.1555 5.28584 17.1555H0V5.84555H5.2848C5.46441 5.84555 5.63983 5.8633 5.809 5.8988H5.81004ZM9.15573 9.15573H13.8443V13.8443H9.15573V9.15573ZM0 4.44003C0 1.99133 1.99133 0 4.44003 0H5.37669V4.59561C5.34641 4.59561 5.31613 4.59353 5.28584 4.59353H0V4.44003ZM4.44003 23C1.99237 23 0 21.0087 0 18.56V18.4065H5.2848C5.31508 18.4065 5.34536 18.4044 5.37565 18.4044V23H4.43898H4.44003ZM6.62976 23V18.1673C7.96531 17.6787 8.91451 16.5039 9.11604 15.0973H13.886C14.0876 16.5029 15.0368 17.6776 16.3723 18.1673V23H6.62871H6.62976ZM23 18.56C23 21.0076 21.0087 23 18.56 23H17.6233V18.4044C17.6536 18.4044 17.6839 18.4065 17.7142 18.4065H22.999V18.56H23ZM17.7152 4.59248C17.6849 4.59248 17.6546 4.59457 17.6244 4.59457V0H18.561C21.0087 0 23.001 1.99133 23.001 4.44003V4.59353H17.7162L17.7152 4.59248Z" fill="url(#paint0_linear_4342_6)"/>
</g>
<defs>
<linearGradient id="paint0_linear_4342_6" x1="2.5" y1="1.5" x2="20.5" y2="23" gradientUnits="userSpaceOnUse">
<stop stop-color="#EC9F23"/>
<stop offset="0.303913" stop-color="#FEE2B2"/>
<stop offset="0.470212" stop-color="#FEE2B2"/>
<stop offset="1" stop-color="#DBA02E"/>
</linearGradient>
<clipPath id="clip0_4342_6">
<rect width="23" height="23" fill="white"/>
</clipPath>
</defs>
</svg>

<svg xmlns="http://www.w3.org/2000/svg" width="147" height="23" fill="none"><path fill="#1F1E25" d="M47.76 19h-3.02v-5.52c-.84.293-1.613.513-2.32.66-.693.147-1.393.22-2.1.22-1.333 0-2.38-.32-3.14-.96-.747-.653-1.12-1.58-1.12-2.78v-5.9h3.02v5.04c0 .693.16 1.213.48 1.56.32.347.86.52 1.62.52.56 0 1.12-.06 1.68-.18.56-.12 1.187-.3 1.88-.54v-6.4h3.02V19Zm6.33-10.92V19h-2.98V8.08h2.98ZM52.61 3.8c.44 0 .82.107 1.14.32.32.2.48.58.48 1.14 0 .547-.16.927-.48 1.14-.32.213-.7.32-1.14.32-.453 0-.84-.107-1.16-.32-.306-.213-.46-.593-.46-1.14 0-.56.154-.94.46-1.14.32-.213.707-.32 1.16-.32Zm14.514 4.28V19h-2.98v-8.68h-3.96V19h-2.98V8.08h9.92ZM87.174 19h-3.02v-5.52c-.84.293-1.613.513-2.32.66-.693.147-1.393.22-2.1.22-1.333 0-2.38-.32-3.14-.96-.747-.653-1.12-1.58-1.12-2.78v-5.9h3.02v5.04c0 .693.16 1.213.48 1.56.32.347.86.52 1.62.52.56 0 1.12-.06 1.68-.18.56-.12 1.187-.3 1.88-.54v-6.4h3.02V19Zm7.85-11.12c1.014 0 1.88.193 2.6.58a4.05 4.05 0 0 1 1.7 1.68c.4.733.6 1.633.6 2.7v1.44h-7.04c.028.84.274 1.5.74 1.98.48.48 1.14.72 1.98.72.707 0 1.347-.067 1.92-.2a9.732 9.732 0 0 0 1.78-.66v2.3c-.532.267-1.1.46-1.7.58-.586.133-1.3.2-2.14.2-1.093 0-2.06-.2-2.9-.6a4.593 4.593 0 0 1-1.98-1.86c-.48-.827-.72-1.867-.72-3.12 0-1.28.214-2.34.64-3.18.44-.853 1.047-1.493 1.82-1.92.774-.427 1.674-.64 2.7-.64Zm.02 2.12c-.572 0-1.052.187-1.44.56-.373.373-.593.953-.66 1.74h4.18c0-.44-.08-.833-.24-1.18a1.785 1.785 0 0 0-.68-.82c-.306-.2-.692-.3-1.16-.3Zm10.277-1.92v4.2h4.16v-4.2h2.98V19h-2.98v-4.5h-4.16V19h-2.98V8.08h2.98Zm20.082 0v8.74h1.6v6.1h-2.68V19h-7.34v3.92h-2.68v-6.1h.92c.48-.733.887-1.567 1.22-2.5.334-.947.6-1.953.8-3.02.2-1.067.347-2.14.44-3.22h7.72Zm-5.22 2.24c-.106.8-.24 1.58-.4 2.34-.16.747-.36 1.467-.6 2.16a13.07 13.07 0 0 1-.84 2h4.08v-6.5h-2.24Zm24.202-2.24-4.02 5.24 4.4 5.68h-3.18l-4.16-5.54V19h-2.78v-5.54l-4.16 5.54h-3.18l4.4-5.68-4.02-5.24h3.08l3.88 5.3v-5.3h2.78v5.3l3.88-5.3h3.08Z"/><g clip-path="url(#a)"><rect width="21" height="21" x="1" y="1" fill="#595769" rx="4"/><path fill="url(#b)" d="M16.37 0v4.833a3.84 3.84 0 0 0-2.486 3.07h-4.77a3.84 3.84 0 0 0-2.486-3.07V0H16.37Zm.818 17.1h-.001c-.02-.004-.039-.01-.059-.013a2.638 2.638 0 0 1-2.032-2.55V8.463c0-.07.003-.142.01-.212 0-.007 0-.014.002-.021a2.634 2.634 0 0 1 2.022-2.318l.038-.008.022-.005c.17-.035.345-.053.524-.053H23v11.307h-5.285a2.65 2.65 0 0 1-.526-.053ZM5.81 5.9l.02.005.04.01a2.637 2.637 0 0 1 2.034 2.55v6.074c0 .07-.003.142-.01.212 0 .007 0 .014-.002.021a2.635 2.635 0 0 1-2.02 2.318c-.02.004-.038.01-.058.013h-.002c-.17.036-.347.053-.526.053H0V5.845h5.285c.18 0 .355.018.524.054h.001Zm3.346 3.257h4.688v4.688H9.156V9.156ZM0 4.44A4.444 4.444 0 0 1 4.44 0h.937v4.596l-.091-.002H0V4.44ZM4.44 23A4.445 4.445 0 0 1 0 18.56v-.153h5.285l.09-.003V23H4.44h.001Zm2.19 0v-4.833a3.84 3.84 0 0 0 2.486-3.07h4.77a3.842 3.842 0 0 0 2.486 3.07V23H6.63ZM23 18.56A4.445 4.445 0 0 1 18.56 23h-.937v-4.596c.03 0 .06.003.091.003H23v.153H23ZM17.715 4.592l-.09.003V0h.936a4.445 4.445 0 0 1 4.44 4.44v.154h-5.285v-.002Z"/></g><defs><linearGradient id="b" x1="2.5" x2="20.5" y1="1.5" y2="23" gradientUnits="userSpaceOnUse"><stop stop-color="#EC9F23"/><stop offset=".304" stop-color="#FEE2B2"/><stop offset=".47" stop-color="#FEE2B2"/><stop offset="1" stop-color="#DBA02E"/></linearGradient><clipPath id="a"><path fill="#fff" d="M0 0h23v23H0z"/></clipPath></defs></svg>
